assets/svg/off-shelves-o.svg

<?xml version="1.0" encoding="UTF-8"?>
<svg width="1000px" height="1000px" viewBox="0 0 1000 1000" version="1.1" xmlns="http://www.w3.org/2000/svg" xmlns:xlink="http://www.w3.org/1999/xlink">
    <!-- Generator: sketchtool 52.4 (67378) - http://www.bohemiancoding.com/sketch -->
    <title>off-shelves-o</title>
    <desc>Created with sketchtool.</desc>
    <g id="新版图标" stroke="none" stroke-width="1" fill="none" fill-rule="evenodd">
        <g id="off-shelves-o" fill="#251714">
            <g id="直角-下架-线">
                <path d="M166.666667,833.333333 L166.666667,166.666667 L833.333333,166.666667 L833.333333,833.333333 L166.666667,833.333333 Z M500.027778,615.883333 L409.916667,525.827778 L370.638889,565.105556 L527.805556,722.216667 L567.083333,682.938889 L684.916667,565.105556 L645.638889,525.827778 L555.583333,615.883333 L555.583333,333.327778 L555.583333,277.772222 L500.027778,277.772222 L277.805556,277.772222 L277.805556,333.327778 L500.027778,333.327778 L500.027778,615.883333 Z M833.333333,111.111111 L166.666667,111.111111 C136,111.111111 111.111111,135.944444 111.111111,166.666667 L111.111111,833.333333 C111.111111,864.055556 136,888.888889 166.666667,888.888889 L833.333333,888.888889 C864,888.888889 888.888889,864.055556 888.888889,833.333333 L888.888889,166.666667 C888.888889,135.944444 864,111.111111 833.333333,111.111111 Z" id="Fill-3"></path>
            </g>
        </g>
    </g>
</svg>

<svg width="1000" height="1000" xmlns="http://www.w3.org/2000/svg"><path d="M166.667 833.333V166.667h666.666v666.666H166.667zm333.36-217.45l-90.11-90.055-39.278 39.278 157.167 157.11 39.277-39.277 117.834-117.833-39.278-39.278-90.056 90.055V277.772H277.806v55.556h222.222v282.555zm333.306-504.772H166.667c-30.667 0-55.556 24.833-55.556 55.556v666.666c0 30.723 24.889 55.556 55.556 55.556h666.666c30.667 0 55.556-24.833 55.556-55.556V166.667c0-30.723-24.889-55.556-55.556-55.556z" fill="#251714" fill-rule="evenodd"/></svg>
